resources/svg/candle-chart-o.svg

<svg xmlns="http://www.w3.org/2000/svg" viewBox="0 0 15 15" fill="none"><path d="M.5 0v14.5H15M8.5 0v3.5m-5 6V12m0-8v1.5m10-1.5v2.5m0 4V13m-11-7.5h2v4h-2v-4zm5-2h2v4h-2v-4zm5 3h2v4h-2v-4z" stroke="currentColor"/></svg>

<svg xmlns="http://www.w3.org/2000/svg" viewBox="0 0 15 15" fill="none"><path d="M0.5 0V14.5H15M8.5 0V3.5M3.5 9.5V12M3.5 4V5.5M13.5 4V6.5M13.5 10.5V13M2.5 5.5H4.5V9.5H2.5V5.5ZM7.5 3.5H9.5V7.5H7.5V3.5ZM12.5 6.5H14.5V10.5H12.5V6.5Z" stroke="black"/></svg>
